PortableApps/LibreOfficePortable/App/libreoffice/help/media/icon-themes/svx/res/marker-circ9-3.svg

<svg viewBox="0 0 9 9" xmlns="http://www.w3.org/2000/svg"><path d="m4.5000003 1c-1.932997 0-3.5 1.567-3.5 3.5s1.567003 3.5 3.5 3.5 3.4999997-1.567 3.4999997-3.5-1.5670027-3.5-3.4999997-3.5z" fill="#76a797" opacity=".66"/><path d="m4.5000003 0c-2.485281 0-4.50000001 2.01472-4.50000001 4.5s2.01471901 4.5 4.50000001 4.5 4.4999997-2.01472 4.4999997-4.5-2.0147187-4.5-4.4999997-4.5zm0 1c1.932997 0 3.4999997 1.567 3.4999997 3.5s-1.5670027 3.5-3.4999997 3.5-3.5-1.567-3.5-3.5 1.567003-3.5 3.5-3.5z" fill="#588878" opacity=".9"/></svg>

<svg viewBox="0 0 9 9" xmlns="http://www.w3.org/2000/svg">
  <path
     style="fill:#76a797;opacity:0.66"
     d="m 4.5000003,1 c -1.932997,0 -3.5,1.567 -3.5,3.5 0,1.933 1.567003,3.5 3.5,3.5 C 6.4329973,8 8,6.433 8,4.5 8,2.567 6.4329973,1 4.5000003,1 Z"
     />
  <path
     style="fill:#588878;opacity:0.9"
     d="M 4.5000003,0 C 2.0147193,0 2.9e-7,2.01472 2.9e-7,4.5 2.9e-7,6.98528 2.0147193,9 4.5000003,9 6.9852813,9 9,6.98528 9,4.5 9,2.01472 6.9852813,0 4.5000003,0 Z m 0,1 C 6.4329973,1 8,2.567 8,4.5 8,6.433 6.4329973,8 4.5000003,8 c -1.932997,0 -3.5,-1.567 -3.5,-3.5 0,-1.933 1.567003,-3.5 3.5,-3.5 z"
     />
</svg>
